X: 0
T: Polska efter Lissmyr Erik Persson
O: vastra Dalarna
R: polska, springlek
S: https://spillefolk.dk/nodesamling/visnode.php?key=po-lissmyrerik3
F: https://www.youtube.com/watch?v=m0N-EmH_u5g
M: 3/4
L: 1/8
K:Am fgp=1
|: (E | E)>e  e<e d>e | c>c B<A B>c | B<^G EG  A>B | (3cAc B<^G E |
| (E | E)>e  e<e d>e | c>c B<A B>c | B<^G EG  A>B | (3cB^G A3 :|
|: (E | A)>^G E>G A>B | c>c B<A B>c | B>^G E>G A>B | (3cAc B<^G E |
| (E | A)>^G E>G A>B | c>c B<A B>c | B>^G E>G A>B | (3cB^G A3 :|
